public/icons/humidity.svg

<svg width="332" height="502" viewBox="0 0 332 502" fill="none" xmlns="http://www.w3.org/2000/svg">
<g clip-path="url(#clip0_4103_49)">
<path d="M83.1604 187C77.5904 190.78 -4.11959 248.21 0.16041 344C0.70041 356.1 4.63041 414 52.1604 458C97.1004 499.62 163.39 512.54 221.16 492C298.33 464.57 322.73 390.8 325.16 383C346.23 315.42 312.51 241.23 274.16 200C244.52 168.13 210.38 154.8 188.16 105C181.107 89.0957 176.391 72.2546 174.16 55C172.21 69.9 171.63 91.36 180.16 114C188.43 135.92 201.36 148.64 213.16 161C257.86 207.81 292.77 244.37 307.16 292C310.81 304.08 317.77 328 313.16 358C306.1 403.95 273.57 452.83 220.16 473C161.38 495.2 97.2404 475.08 59.1604 434C9.62041 380.54 21.4504 310.16 24.1604 294C34.0004 235.32 70.1104 199 83.1604 187Z" fill="url(#paint0_linear_4103_49)"/>
<path d="M77.1595 288C72.2395 298.64 57.0095 335 70.1595 377C72.9495 385.9 79.5295 406 98.1595 423C124.16 446.66 166.16 457.42 204.16 442C253.79 421.88 264.78 370.1 266.16 363C273.56 324.93 258.16 294.83 253.16 286C254.95 293.55 263.07 331.21 240.16 366C235.99 372.34 223.16 391.25 198.16 401C169.75 412.08 135.57 407.43 112.16 389C78.9495 362.84 77.7195 317 77.1595 296C77.0695 292.64 77.1095 289.86 77.1595 288Z" fill="url(#paint1_linear_4103_49)"/>
<path d="M116.16 272C114.27 271.75 100.5 303.84 114.16 331C118.042 338.425 123.503 344.91 130.16 350C132.94 352.14 154.93 368.49 181.16 361C206.6 353.73 220 328.62 222.16 308C223.33 295.577 220.9 283.079 215.16 272C216.16 275.84 220.75 295.34 209.16 314C204.06 322.16 196.788 328.739 188.16 333C185.55 334.28 163.41 344.68 142.16 333C125.16 323.66 120.07 306.43 118.16 300C113.37 283.83 117.3 272.15 116.16 272Z" fill="url(#paint2_linear_4103_49)"/>
<path d="M236.16 26C204.36 78.41 202.27 96.42 208.16 102C214.22 107.74 232 103.43 241.16 93C254.21 78.16 242.79 58.91 253.16 24C255.643 15.6717 258.995 7.62747 263.16 0C242.526 5.89072 222.952 15.0029 205.16 27C191.72 36.14 187.57 41.46 185.16 47C175.68 68.79 190.23 95.67 194.16 95C197.42 94.45 190.61 75.36 202.16 56C208.93 44.66 220.24 36.16 223.16 34C227.258 30.9677 231.607 28.2913 236.16 26Z" fill="#8CC63F"/>
<path d="M163.16 99.0002C161.44 96.0002 153.06 82.1102 136.16 78.0002C129.914 76.5161 123.407 76.5161 117.16 78.0002C129.032 83.7067 140.405 90.3967 151.16 98.0002C155.66 101.2 158.4 103.41 158.16 106C157.63 111.74 142.64 117.46 130.16 114C123.42 112.13 119.08 107.82 116.16 105C108.16 97.2202 108.61 91.9302 102.16 85.0002C98.8302 81.4102 93.1602 76.8502 83.1602 74.0002C93.6126 69.4388 104.779 66.7318 116.16 66.0002C122.66 65.6002 130.08 65.2102 139.16 68.0002C145.89 70.0702 156.32 73.2602 161.16 83.0002C163.506 87.9868 164.206 93.5896 163.16 99.0002Z" fill="#8CC63F"/>
</g>
<defs>
<linearGradient id="paint0_linear_4103_49" x1="165.825" y1="55" x2="165.825" y2="501.599" gradientUnits="userSpaceOnUse">
<stop stop-color="#C9FFF5"/>
<stop offset="1" stop-color="#2BD598"/>
</linearGradient>
<linearGradient id="paint1_linear_4103_49" x1="166.536" y1="286" x2="166.536" y2="449.196" gradientUnits="userSpaceOnUse">
<stop stop-color="#C9FFF5"/>
<stop offset="1" stop-color="#2BD598"/>
</linearGradient>
<linearGradient id="paint2_linear_4103_49" x1="165.315" y1="271.999" x2="165.315" y2="362.95" gradientUnits="userSpaceOnUse">
<stop stop-color="#C9FFF5"/>
<stop offset="1" stop-color="#2BD598"/>
</linearGradient>
<clipPath id="clip0_4103_49">
<rect width="331.65" height="501.6" fill="white"/>
</clipPath>
</defs>
</svg>

<svg xmlns="http://www.w3.org/2000/svg" viewBox="0 0 331.65 501.6"><defs><style>.cls-1{fill:#00037f;}.cls-2{fill:#0058d4;}.cls-3{fill:#29abe2;}.cls-4{fill:#8cc63f;}</style></defs><g id="Layer_2" data-name="Layer 2"><g id="Layer_2-2" data-name="Layer 2"><path class="cls-1" d="M83.16,187c-5.57,3.78-87.28,61.21-83,157,.54,12.1,4.47,70,52,114,44.94,41.62,111.23,54.54,169,34,77.17-27.43,101.57-101.2,104-109,21.07-67.58-12.65-141.77-51-183-29.64-31.87-63.78-45.2-86-95a180.39,180.39,0,0,1-14-50c-1.95,14.9-2.53,36.36,6,59,8.27,21.92,21.2,34.64,33,47,44.7,46.81,79.61,83.37,94,131,3.65,12.08,10.61,36,6,66-7.06,45.95-39.59,94.83-93,115-58.78,22.2-122.92,2.08-161-39-49.54-53.46-37.71-123.84-35-140C34,235.32,70.11,199,83.16,187Z"/><path class="cls-2" d="M77.16,288c-4.92,10.64-20.15,47-7,89,2.79,8.9,9.37,29,28,46,26,23.66,68,34.42,106,19,49.63-20.12,60.62-71.9,62-79,7.4-38.07-8-68.17-13-77,1.79,7.55,9.91,45.21-13,80-4.17,6.34-17,25.25-42,35-28.41,11.08-62.59,6.43-86-12-33.21-26.16-34.44-72-35-93C77.07,292.64,77.11,289.86,77.16,288Z"/><path class="cls-3" d="M116.16,272c-1.89-.25-15.66,31.84-2,59a57.4,57.4,0,0,0,16,19c2.78,2.14,24.77,18.49,51,11,25.44-7.27,38.84-32.38,41-53a65,65,0,0,0-7-36c1,3.84,5.59,23.34-6,42a51.82,51.82,0,0,1-21,19c-2.61,1.28-24.75,11.68-46,0-17-9.34-22.09-26.57-24-33C113.37,283.83,117.3,272.15,116.16,272Z"/><path class="cls-4" d="M236.16,26c-31.8,52.41-33.89,70.42-28,76,6.06,5.74,23.84,1.43,33-9,13.05-14.84,1.63-34.09,12-69a124,124,0,0,1,10-24,203.82,203.82,0,0,0-58,27c-13.44,9.14-17.59,14.46-20,20-9.48,21.79,5.07,48.67,9,48,3.26-.55-3.55-19.64,8-39,6.77-11.34,18.08-19.84,21-22A89.42,89.42,0,0,1,236.16,26Z"/><path class="cls-4" d="M163.16,99c-1.72-3-10.1-16.89-27-21a41.1,41.1,0,0,0-19,0,236.09,236.09,0,0,1,34,20c4.5,3.2,7.24,5.41,7,8-.53,5.74-15.52,11.46-28,8-6.74-1.87-11.08-6.18-14-9-8-7.78-7.55-13.07-14-20-3.33-3.59-9-8.15-19-11a98.27,98.27,0,0,1,33-8c6.5-.4,13.92-.79,23,2,6.73,2.07,17.16,5.26,22,15A26,26,0,0,1,163.16,99Z"/></g></g></svg>
